;FLAVOR:UltiGCode
;TIME:7063
;MATERIAL:7452
;MATERIAL2:0
;NOZZLE_DIAMETER:0.000000
;NOZZLE_DIAMETER2:0.000000

;Layer count: 130
;LAYER:0
M107
G0 F9000 X91.375 Y114.378 Z0.300
G0 X91.589 Y114.375
;TYPE:SKIRT
G1 F1200 X91.596 Y114.370 E0.00103
G1 X91.914 Y114.370 E0.03919
G1 X92.225 Y114.365 E0.07652
G1 X92.285 Y114.348 E0.08400
G1 X139.670 Y114.348 E5.77020
G1 X140.916 Y114.736 E5.92680
G1 X142.021 Y115.776 E6.10889
G1 X142.486 Y117.045 E6.27108
G1 X142.537 Y118.501 E6.44590
G1 X142.610 Y121.996 E6.86540
G1 X142.677 Y126.745 E7.43533
G1 X142.702 Y129.289 E7.74063
G1 X142.737 Y132.640 E8.14277
G1 X142.788 Y139.549 E8.97187
G1 X142.817 Y144.945 E9.61940
G1 X142.634 Y145.958 E9.74293
G1 X141.992 Y147.040 E9.89390
G1 X141.275 Y147.662 E10.00781
G1 X140.495 Y148.090 E10.11457
G1 X139.668 Y148.281 E10.21642
G1 X139.265 Y148.302 E10.26485
G1 X92.585 Y148.302 E15.86645
G1 X91.646 Y148.211 E15.97966
G1 X90.932 Y147.974 E16.06993
G1 X90.380 Y147.705 E16.14362
G1 X89.847 Y147.296 E16.22424
G1 X84.893 Y142.260 E17.07195
G1 X83.888 Y141.237 E17.24404
G1 X83.310 Y140.576 E17.34941
G1 X82.935 Y139.998 E17.43209
G1 X82.522 Y139.207 E17.53917
G1 X82.276 Y138.523 E17.62639
G1 X82.272 Y138.482 E17.63134
G1 X82.125 Y138.099 E17.68056
G1 X82.710 Y124.616 E19.30005
G1 X82.761 Y123.981 E19.37649
G1 X82.831 Y123.390 E19.44791
G1 X83.344 Y122.298 E19.59269
G1 X83.510 Y122.084 E19.62519
G1 X83.636 Y121.844 E19.65772
G1 X84.016 Y121.339 E19.73356
G1 X85.614 Y119.788 E20.00079
G1 X87.117 Y118.342 E20.25106
G1 X89.122 Y116.426 E20.58386
G1 X90.528 Y115.114 E20.81463
G1 X90.686 Y115.004 E20.83773
G1 X91.375 Y114.378 E20.94944
G1 X91.589 Y114.375 E20.97512
G10
G0 F9000 X92.853 Y118.170
;TYPE:WALL-INNER
G11
G1 F1200 X92.877 Y118.148 E20.97903
G1 X138.722 Y118.148 E26.48043
G1 X138.810 Y122.060 E26.94999
G1 X138.877 Y126.789 E27.51752
G1 X138.937 Y132.672 E28.22352
G1 X138.988 Y139.572 E29.05154
G1 X139.014 Y144.502 E29.64315
G1 X92.766 Y144.502 E35.19291
G1 X92.440 Y144.471 E35.23221
G1 X92.373 Y144.445 E35.24083
G1 X86.663 Y138.639 E36.21803
G1 X86.353 Y138.285 E36.27450
G1 X86.220 Y138.078 E36.30402
G1 X86.014 Y137.684 E36.35737
G1 X86.007 Y137.607 E36.36665
G1 X85.955 Y137.473 E36.38390
G1 X86.502 Y124.864 E37.89840
G1 X86.537 Y124.439 E37.94958
G1 X86.604 Y124.295 E37.96864
G1 X86.721 Y124.144 E37.99156
G1 X86.860 Y123.878 E38.02757
G1 X88.252 Y122.521 E38.26085
G1 X89.747 Y121.086 E38.50952
G1 X91.734 Y119.186 E38.83943
G1 X92.822 Y118.170 E39.01806
G1 X92.853 Y118.170 E39.02178
G0 F9000 X92.698 Y117.770
;TYPE:WALL-OUTER
G1 F1200 X92.710 Y117.759 E39.02374
G1 X92.731 Y117.759 E39.02626
G1 X92.768 Y117.748 E39.03089
G1 X139.109 Y117.748 E44.59181
G1 X139.138 Y118.594 E44.69339
G1 X139.210 Y122.055 E45.10880
G1 X139.337 Y132.669 E46.38257
G1 X139.415 Y144.648 E47.82008
G1 X139.396 Y144.752 E47.83277
G1 X139.348 Y144.832 E47.84396
G1 X139.273 Y144.883 E47.85485
G1 X139.195 Y144.901 E47.86445
G1 X92.748 Y144.902 E53.43809
G1 X92.357 Y144.864 E53.48523
G1 X92.179 Y144.799 E53.50797
G1 X92.103 Y144.741 E53.51945
G1 X86.378 Y138.920 E54.49919
G1 X86.032 Y138.525 E54.56220
G1 X85.871 Y138.276 E54.59778
G1 X85.645 Y137.842 E54.65650
G1 X85.621 Y137.775 E54.66504
G1 X85.614 Y137.699 E54.67420
G1 X85.553 Y137.540 E54.69464
G1 X86.104 Y124.824 E56.22199
G1 X86.143 Y124.336 E56.28074
G1 X86.261 Y124.085 E56.31402
G1 X86.383 Y123.927 E56.33797
G1 X86.519 Y123.666 E56.37329
G1 X86.576 Y123.592 E56.38450
G1 X87.976 Y122.232 E56.61872
G1 X91.458 Y118.896 E57.19738
G1 X92.664 Y117.770 E57.39537
G1 X92.698 Y117.770 E57.39945
G0 F9000 X93.114 Y118.287
;TYPE:SKIN
G1 F900 X119.188 Y144.361 E61.82435
G0 F9000 X118.622 Y144.361
G1 F900 X92.718 Y118.457 E66.22041
G0 F9000 X92.425 Y118.730
G1 F900 X118.057 Y144.361 E70.57022
G0 F9000 X117.491 Y144.361
G1 F900 X92.133 Y119.003 E74.87361
G0 F9000 X91.840 Y119.276
G1 F900 X116.925 Y144.361 E79.13068
G0 F9000 X116.360 Y144.361
G1 F900 X91.551 Y119.553 E83.34082
G0 F9000 X91.264 Y119.831
G1 F900 X115.794 Y144.361 E87.50370
G0 F9000 X115.228 Y144.361
G1 F900 X90.975 Y120.108 E91.61957
G0 F9000 X90.687 Y120.386
G1 F900 X114.663 Y144.361 E95.68835
G0 F9000 X114.097 Y144.361
G1 F900 X90.399 Y120.663 E99.71003
G0 F9000 X90.111 Y120.941
G1 F900 X113.531 Y144.361 E103.68454
G0 F9000 X112.965 Y144.361
G1 F900 X89.823 Y121.218 E107.61195
G0 F9000 X89.534 Y121.495
G1 F900 X112.400 Y144.361 E111.49244
G0 F9000 X111.834 Y144.361
G1 F900 X89.246 Y121.773 E115.32575
G0 F9000 X88.958 Y122.050
G1 F900 X111.268 Y144.361 E119.11197
G0 F9000 X110.703 Y144.361
G1 F900 X88.670 Y122.328 E122.85109
G0 F9000 X88.381 Y122.605
G1 F900 X110.137 Y144.361 E126.54321
G0 F9000 X109.571 Y144.361
G1 F900 X88.094 Y122.883 E130.18806
G0 F9000 X87.805 Y123.161
G1 F900 X109.006 Y144.361 E133.78590
G0 F9000 X108.440 Y144.361
G1 F900 X87.517 Y123.438 E137.33666
G0 F9000 X87.229 Y123.716
G1 F900 X107.874 Y144.361 E140.84023
G0 F9000 X107.309 Y144.361
G1 F900 X86.951 Y124.003 E144.29509
G0 F9000 X86.734 Y124.352
G1 F900 X106.743 Y144.361 E147.69073
G0 F9000 X106.177 Y144.361
G1 F900 X86.644 Y124.828 E151.00559
G0 F9000 X86.619 Y125.369
G1 F900 X105.612 Y144.361 E154.22873
G0 F9000 X105.046 Y144.361
G1 F900 X86.596 Y125.911 E157.35980
G0 F9000 X86.572 Y126.453
G1 F900 X104.480 Y144.361 E160.39889
G0 F9000 X103.914 Y144.361
G1 F900 X86.549 Y126.995 E163.34591
G0 F9000 X86.525 Y127.538
G1 F900 X103.349 Y144.361 E166.20095
G0 F9000 X102.783 Y144.361
G1 F900 X86.502 Y128.080 E168.96393
G0 F9000 X86.479 Y128.622
G1 F900 X102.217 Y144.361 E171.63484
G0 F9000 X101.652 Y144.361
G1 F900 X86.455 Y129.165 E174.21377
G0 F9000 X86.431 Y129.706
G1 F900 X101.086 Y144.361 E176.70081
G0 F9000 X100.520 Y144.361
G1 F900 X86.408 Y130.249 E179.09569
G0 F9000 X86.385 Y130.791
G1 F900 X99.955 Y144.361 E181.39860
G0 F9000 X99.389 Y144.361
G1 F900 X86.361 Y131.333 E183.60952
G0 F9000 X86.338 Y131.876
G1 F900 X98.823 Y144.361 E185.72830
G0 F9000 X98.258 Y144.361
G1 F900 X86.314 Y132.417 E187.75526
G0 F9000 X86.291 Y132.960
G1 F900 X97.692 Y144.361 E189.69008
G0 F9000 X97.126 Y144.361
G1 F900 X86.267 Y133.502 E191.53291
G0 F9000 X86.244 Y134.044
G1 F900 X96.561 Y144.361 E193.28376
G0 F9000 X95.995 Y144.361
G1 F900 X86.221 Y134.587 E194.94247
G0 F9000 X86.197 Y135.129
G1 F900 X95.429 Y144.361 E196.50919
G0 F9000 X94.864 Y144.361
G1 F900 X86.173 Y135.671 E197.98402
G0 F9000 X86.150 Y136.213
G1 F900 X94.298 Y144.361 E199.36678
G0 F9000 X93.732 Y144.361
G1 F900 X86.127 Y136.755 E200.65747
G0 F9000 X86.103 Y137.298
G1 F900 X93.166 Y144.361 E201.85610
G0 F9000 X92.583 Y144.343
G1 F900 X86.643 Y138.403 E202.86416
G0 F9000 X93.680 Y118.287
G1 F900 X119.754 Y144.361 E207.28906
G0 F9000 X120.319 Y144.361
G1 F900 X94.246 Y118.287 E211.71388
G0 F9000 X94.811 Y118.287
G1 F900 X120.885 Y144.361 E216.13878
G0 F9000 X121.451 Y144.361
G1 F900 X95.377 Y118.287 E220.56369
G0 F9000 X95.943 Y118.287
G1 F900 X122.016 Y144.361 E224.98851
G0 F9000 X122.582 Y144.361
G1 F900 X96.508 Y118.287 E229.41341
G0 F9000 X97.074 Y118.287
G1 F900 X123.148 Y144.361 E233.83832
G0 F9000 X123.713 Y144.361
G1 F900 X97.640 Y118.287 E238.26314
G0 F9000 X98.205 Y118.287
G1 F900 X124.279 Y144.361 E242.68804
G0 F9000 X124.845 Y144.361
G1 F900 X98.771 Y118.287 E247.11295
G0 F9000 X99.337 Y118.287
G1 F900 X125.411 Y144.361 E251.53785
G0 F9000 X125.976 Y144.361
G1 F900 X99.902 Y118.287 E255.96276
G0 F9000 X100.468 Y118.287
G1 F900 X126.542 Y144.361 E260.38766
G0 F9000 X127.108 Y144.361
G1 F900 X101.034 Y118.287 E264.81256
G0 F9000 X101.599 Y118.287
G1 F900 X127.673 Y144.361 E269.23747
G0 F9000 X128.239 Y144.361
G1 F900 X102.165 Y118.287 E273.66237
G0 F9000 X102.731 Y118.287
G1 F900 X128.805 Y144.361 E278.08728
G0 F9000 X129.370 Y144.361
G1 F900 X103.296 Y118.287 E282.51218
G0 F9000 X103.862 Y118.287
G1 F900 X129.936 Y144.361 E286.93709
G0 F9000 X130.502 Y144.361
G1 F900 X104.428 Y118.287 E291.36199
G0 F9000 X104.994 Y118.287
G1 F900 X131.067 Y144.361 E295.78681
G0 F9000 X131.633 Y144.361
G1 F900 X105.559 Y118.287 E300.21172
G0 F9000 X106.125 Y118.287
G1 F900 X132.199 Y144.361 E304.63662
G0 F9000 X132.764 Y144.361
G1 F900 X106.691 Y118.287 E309.06144
G0 F9000 X107.256 Y118.287
G1 F900 X133.330 Y144.361 E313.48634
G0 F9000 X133.896 Y144.361
G1 F900 X107.822 Y118.287 E317.91125
G0 F9000 X108.388 Y118.287
G1 F900 X134.462 Y144.361 E322.33615
G0 F9000 X135.027 Y144.361
G1 F900 X108.953 Y118.287 E326.76106
G0 F9000 X109.519 Y118.287
G1 F900 X135.593 Y144.361 E331.18596
G0 F9000 X136.159 Y144.361
G1 F900 X110.085 Y118.287 E335.61087
G0 F9000 X110.650 Y118.287
G1 F900 X136.724 Y144.361 E340.03577
G0 F9000 X137.290 Y144.361
G1 F900 X111.216 Y118.287 E344.46068
G0 F9000 X111.782 Y118.287
G1 F900 X137.856 Y144.361 E348.88558
G0 F9000 X138.421 Y144.361
G1 F900 X112.347 Y118.287 E353.31049
G0 F9000 X112.913 Y118.287
G1 F900 X138.873 Y144.247 E357.71604
G0 F9000 X138.867 Y143.675
G1 F900 X113.479 Y118.287 E362.02453
G0 F9000 X114.045 Y118.287
G1 F900 X138.860 Y143.103 E366.23586
G0 F9000 X138.854 Y142.531
G1 F900 X114.610 Y118.287 E370.35020
G0 F9000 X115.176 Y118.287
G1 F900 X138.848 Y141.959 E374.36747
G0 F9000 X138.841 Y141.387
G1 F900 X115.742 Y118.287 E378.28759
G0 F9000 X116.307 Y118.287
G1 F900 X138.835 Y140.815 E382.11072
G0 F9000 X138.829 Y140.243
G1 F900 X116.873 Y118.287 E385.83678
G0 F9000 X117.439 Y118.287
G1 F900 X138.822 Y139.671 E389.46568
G0 F9000 X138.816 Y139.099
G1 F900 X118.004 Y118.287 E392.99759
G0 F9000 X118.570 Y118.287
G1 F900 X138.810 Y138.527 E396.43243
G0 F9000 X138.803 Y137.955
G1 F900 X119.136 Y118.287 E399.77012
G0 F9000 X119.701 Y118.287
G1 F900 X138.797 Y137.383 E403.01081
G0 F9000 X138.790 Y136.811
G1 F900 X120.267 Y118.287 E406.15436
G0 F9000 X120.833 Y118.287
G1 F900 X138.784 Y136.238 E409.20074
G0 F9000 X138.778 Y135.666
G1 F900 X121.398 Y118.287 E412.15014
G0 F9000 X121.964 Y118.287
G1 F900 X138.771 Y135.094 E415.00238
G0 F9000 X138.765 Y134.522
G1 F900 X122.530 Y118.287 E417.75756
G0 F9000 X123.095 Y118.287
G1 F900 X138.759 Y133.950 E420.41574
G0 F9000 X138.752 Y133.378
G1 F900 X123.661 Y118.287 E422.97677
G0 F9000 X124.227 Y118.287
G1 F900 X138.746 Y132.806 E425.44072
G0 F9000 X138.740 Y132.234
G1 F900 X124.793 Y118.287 E427.80761
G0 F9000 X125.358 Y118.287
G1 F900 X138.733 Y131.662 E430.07742
G0 F9000 X138.727 Y131.090
G1 F900 X125.924 Y118.287 E432.25016
G0 F9000 X126.490 Y118.287
G1 F900 X138.720 Y130.518 E434.32575
G0 F9000 X138.714 Y129.946
G1 F900 X127.055 Y118.287 E436.30434
G0 F9000 X127.621 Y118.287
G1 F900 X138.708 Y129.374 E438.18587
G0 F9000 X138.701 Y128.802
G1 F900 X128.187 Y118.287 E439.97024
G0 F9000 X128.752 Y118.287
G1 F900 X138.695 Y128.230 E441.65762
G0 F9000 X138.689 Y127.658
G1 F900 X129.318 Y118.287 E443.24793
G0 F9000 X129.884 Y118.287
G1 F900 X138.682 Y127.086 E444.74109
G0 F9000 X138.676 Y126.514
G1 F900 X130.449 Y118.287 E446.13726
G0 F9000 X131.015 Y118.287
G1 F900 X138.670 Y125.942 E447.43635
G0 F9000 X138.663 Y125.370
G1 F900 X131.581 Y118.287 E448.63829
G0 F9000 X132.146 Y118.287
G1 F900 X138.657 Y124.797 E449.74316
G0 F9000 X138.650 Y124.225
G1 F900 X132.712 Y118.287 E450.75087
G0 F9000 X133.278 Y118.287
G1 F900 X138.644 Y123.653 E451.66152
G0 F9000 X138.638 Y123.081
G1 F900 X133.843 Y118.287 E452.47517
G0 F9000 X134.409 Y118.287
G1 F900 X138.631 Y122.509 E453.19167
G0 F9000 X138.625 Y121.937
G1 F900 X134.975 Y118.287 E453.81109
G0 F9000 X135.541 Y118.287
G1 F900 X138.619 Y121.365 E454.33345
G0 F9000 X138.612 Y120.793
G1 F900 X136.106 Y118.287 E454.75873
G0 F9000 X136.672 Y118.287
G1 F900 X138.606 Y120.221 E455.08694
G0 F9000 X138.600 Y119.649
G1 F900 X137.238 Y118.287 E455.31808
G0 F9000 X137.803 Y118.287
G1 F900 X138.593 Y119.077 E455.45214
G0 F9000 X138.587 Y118.505
G1 F900 X138.369 Y118.287 E455.48914
;LAYER:1
M106 S127
G0 F9000 X138.897 Y117.951 Z0.400
;TYPE:WALL-INNER
G1 F1800 X138.937 Y121.133 E455.61643
G1 X139.029 Y135.671 E456.19796
G1 X139.060 Y144.547 E456.55300
G1 X92.754 Y144.547 E458.40524
G1 X92.322 Y144.508 E458.42259
G1 X92.264 Y144.479 E458.42519
G1 X88.747 Y140.928 E458.62510
G1 X86.592 Y138.742 E458.74789
G1 X86.249 Y138.366 E458.76825
G1 X85.854 Y137.795 E458.79602
G1 X85.668 Y137.492 E458.81024
G1 X85.663 Y137.359 E458.81556
G1 X85.688 Y135.804 E458.87777
G1 X86.036 Y124.718 E459.32143
G1 X86.039 Y124.650 E459.32415
G1 X86.059 Y124.571 E459.32741
G1 X86.471 Y124.027 E459.35471
G1 X86.721 Y123.724 E459.37042
G1 X89.547 Y120.947 E459.52891
G1 X92.593 Y117.969 E459.69930
G1 X92.671 Y117.955 E459.70247
G1 X138.897 Y117.951 E461.55151
G0 F9000 X139.166 Y117.551
;TYPE:WALL-OUTER
G1 F1320 X139.234 Y117.564 E461.55428
G1 X139.261 Y117.581 E461.55556
G1 X139.292 Y117.627 E461.55777
G1 X139.337 Y121.130 E461.69791
G1 X139.460 Y144.651 E462.63876
G1 X139.442 Y144.766 E462.64342
G1 X139.359 Y144.882 E462.64912
G1 X139.261 Y144.932 E462.65352
G1 X139.195 Y144.947 E462.65623
G1 X92.750 Y144.947 E464.51403
G1 X92.370 Y144.926 E464.52925
G1 X92.189 Y144.888 E464.53665
G1 X92.030 Y144.810 E464.54373
G1 X86.297 Y139.012 E464.86989
G1 X85.934 Y138.614 E464.89143
G1 X85.526 Y138.025 E464.92009
G1 X85.287 Y137.628 E464.93863
G1 X85.265 Y137.509 E464.94347
G1 X85.263 Y137.352 E464.94975
G1 X85.288 Y135.791 E465.01220
G1 X85.636 Y124.703 E465.45594
G1 X85.645 Y124.554 E465.46191
G1 X85.692 Y124.394 E465.46858
G1 X86.162 Y123.773 E465.49973
G1 X86.422 Y123.457 E465.51610
G1 X92.337 Y117.660 E465.84738
G1 X92.419 Y117.606 E465.85131
G1 X92.496 Y117.579 E465.85457
G1 X92.637 Y117.555 E465.86029
G1 X139.166 Y117.551 E467.72145
G0 F9000 X138.758 Y118.345
;TYPE:SKIN
G1 F900 X112.697 Y144.406 E469.19569
G0 F9000 X112.132 Y144.406
G1 F900 X138.447 Y118.091 E470.68429
G0 F9000 X137.881 Y118.091
G1 F900 X111.566 Y144.406 E472.17289
G0 F9000 X111.000 Y144.406
G1 F900 X137.315 Y118.091 E473.66149
G0 F9000 X136.750 Y118.091
G1 F900 X110.435 Y144.406 E475.15009
G0 F9000 X109.869 Y144.406
G1 F900 X136.184 Y118.091 E476.63869
G0 F9000 X135.618 Y118.091
G1 F900 X109.303 Y144.406 E478.12729
G0 F9000 X108.738 Y144.406
G1 F900 X135.053 Y118.091 E479.61589
G0 F9000 X134.487 Y118.091
G1 F900 X108.172 Y144.406 E481.10449
G0 F9000 X107.606 Y144.406
G1 F900 X133.921 Y118.091 E482.59310
G0 F9000 X133.356 Y118.091
G1 F900 X107.041 Y144.406 E484.08170
G0 F9000 X106.475 Y144.406
G1 F900 X132.790 Y118.091 E485.57030
G0 F9000 X132.224 Y118.091
G1 F900 X105.909 Y144.406 E487.05890
G0 F9000 X105.344 Y144.406
G1 F900 X131.659 Y118.091 E488.54750
G0 F9000 X131.093 Y118.091
G1 F900 X104.778 Y144.406 E490.03610
G0 F9000 X104.212 Y144.406
G1 F900 X130.527 Y118.091 E491.52470
G0 F9000 X129.961 Y118.091
G1 F900 X103.647 Y144.406 E493.01328
G0 F9000 X103.081 Y144.406
G1 F900 X129.395 Y118.091 E494.50185
G0 F9000 X128.829 Y118.091
G1 F900 X102.515 Y144.406 E495.99042
G0 F9000 X101.949 Y144.406
G1 F900 X128.264 Y118.091 E497.47902
G0 F9000 X127.698 Y118.091
G1 F900 X101.384 Y144.406 E498.96760
G0 F9000 X100.818 Y144.406
G1 F900 X127.132 Y118.091 E500.45617
G0 F9000 X126.567 Y118.091
G1 F900 X100.252 Y144.406 E501.94477
G0 F9000 X113.263 Y144.406
G1 F900 X138.761 Y118.907 E503.38718
G0 F9000 X138.765 Y119.469
G1 F900 X113.829 Y144.406 E504.79780
G0 F9000 X114.395 Y144.406
G1 F900 X138.768 Y120.032 E506.17658
G0 F9000 X138.771 Y120.594
G1 F900 X114.960 Y144.406 E507.52356
G0 F9000 X115.526 Y144.406
G1 F900 X138.775 Y121.157 E508.83872
G0 F9000 X138.778 Y121.719
G1 F900 X116.092 Y144.406 E510.12206
G0 F9000 X116.657 Y144.406
G1 F900 X138.782 Y122.281 E511.37364
G0 F9000 X138.785 Y122.843
G1 F900 X117.223 Y144.406 E512.59340
G0 F9000 X117.789 Y144.406
G1 F900 X138.789 Y123.405 E513.78137
G0 F9000 X138.793 Y123.967
G1 F900 X118.354 Y144.406 E514.93757
G0 F9000 X118.920 Y144.406
G1 F900 X138.796 Y124.529 E516.06196
G0 F9000 X138.800 Y125.092
G1 F900 X119.486 Y144.406 E517.15452
G0 F9000 X120.051 Y144.406
G1 F900 X138.803 Y125.654 E518.21530
G0 F9000 X138.807 Y126.216
G1 F900 X120.617 Y144.406 E519.24428
G0 F9000 X121.183 Y144.406
G1 F900 X138.810 Y126.778 E520.24144
G0 F9000 X138.814 Y127.340
G1 F900 X121.748 Y144.406 E521.20684
G0 F9000 X122.314 Y144.406
G1 F900 X138.817 Y127.902 E522.14042
